X: 23131
T: Law Student, The
R: jig
M: 6/8
K: Bdorian
|:~B3 Bcd|cAF ~F3|~B3 d2a|fea fec|
~B3 Bcd|cAF ~F3|def ecA|1 cBA B2F:|2 cBA B2f||
|:~b3 baf|faa a2e|ded cde|cAA A2a|
~b3 baf|faa a2e|ded cdc|~B3 BAF:|

